X: 1
T:Sukey Bids Me -- Reel
M:2/4
L:1/16
R:reel
O:SCOTCH.
B:Ryan's Mammoth Collection
N:321
Z:Contributed by Ray Davies,  ray:davies99.freeserve.co.uk
K:G
vGDEG .c2u(c"4"e) | dBAG BGEF | v.G2vDuE .G2"4".e2 | dBcA G2z2 |
GDEG .c2(c"4"e) | dBAG BGEF | .G2vDuE .G2"4".e2 | dBcA G2z2 :|
|:.d2vBuc .d2.g2 | fafd ege^c | .d2vBu=c .d2.g2 | fge^c d3"4"e |
defe dcBA | .B2(AG) "4"AGEF | v.G2uDE .G2"4".e2 | dBcA G2z2 :|
